modules/framework7-icons/icons/eye.svg

<?xml version="1.0" encoding="UTF-8"?>
<svg width="50px" height="50px" viewBox="0 0 50 50" version="1.1" xmlns="http://www.w3.org/2000/svg" xmlns:xlink="http://www.w3.org/1999/xlink">
    <!-- Generator: Sketch 40.1 (33804) - http://www.bohemiancoding.com/sketch -->
    <title>eye</title>
    <desc>Created with Sketch.</desc>
    <defs></defs>
    <g id="Page-1" stroke="none" stroke-width="1" fill="none" fill-rule="evenodd">
        <g id="eye" transform="translate(-7.000000, 8.000000)" fill="#000000">
            <path d="M53.5612179,23.8916477 C55.991878,22.0950729 58.1915311,20.1675418 60.1170364,18.2420364 C60.7886129,17.57046 61.3766779,16.9486305 61.8760717,16.3932299 C62.169704,16.0666669 62.3647496,15.839559 62.4561395,15.7285855 L62.5003243,18.3232433 C62.3998398,18.2093609 62.1892266,17.979355 61.8750024,17.6499041 C61.3421425,17.0912228 60.7184865,16.4661526 60.0106391,15.7913822 C57.9826618,13.8581701 55.695112,11.9234266 53.2027604,10.1204488 C46.1690628,5.03224201 38.9451921,2 32,2 C25.0803043,2 17.86807,5.20543747 10.8411538,10.5877563 C8.34807016,12.4973522 6.05939106,14.5469156 4.03015093,16.5951206 C3.32163089,17.3102623 2.69728813,17.9728301 2.1637361,18.5651434 C1.84885285,18.9147054 1.63758138,19.1590022 1.53644256,19.2803688 L1.50515339,16.6829908 C1.59575198,16.786532 1.79000325,16.9994101 2.08284344,17.3059344 C2.58142221,17.8278113 3.16868317,18.4122624 3.8394794,19.0436 C5.76361445,20.8545507 7.96210035,22.6677349 10.392129,24.3581896 C17.272646,29.1446362 24.5895157,32 32,32 C39.3847728,32 46.6880604,28.9718076 53.5612179,23.8916477 Z M0,18 C0,18 15,1.10600914e-15 32,0 C49,0 64,17 64,17 C64,17 50,34 32,34 C14,34 0,18 0,18 Z" id="Oval-63"></path>
            <path d="M40,17 C40,12.581722 36.418278,9 32,9 C27.581722,9 24,12.581722 24,17 C24,21.418278 27.581722,25 32,25 C36.418278,25 40,21.418278 40,17 Z M22,17 C22,11.4771525 26.4771525,7 32,7 C37.5228475,7 42,11.4771525 42,17 C42,22.5228475 37.5228475,27 32,27 C26.4771525,27 22,22.5228475 22,17 Z" id="Oval-64"></path>
            <circle id="Oval-64" cx="32" cy="17" r="4"></circle>
        </g>
    </g>
</svg>

<svg width="50" height="50" xmlns="http://www.w3.org/2000/svg"><g transform="translate(-7 8)" fill-rule="evenodd"><path d="M53.561 23.892a58.449 58.449 0 0 0 6.556-5.65 48.44 48.44 0 0 0 1.76-1.849c.293-.326.488-.553.58-.664l.043 2.594c-.1-.114-.31-.344-.625-.673a55.714 55.714 0 0 0-1.864-1.859 65.91 65.91 0 0 0-6.808-5.67C46.169 5.031 38.945 2 32 2c-6.92 0-14.132 3.205-21.159 8.588a66.976 66.976 0 0 0-6.81 6.007 57.522 57.522 0 0 0-1.867 1.97c-.315.35-.526.594-.628.715l-.03-2.597c.09.104.284.316.577.623a46.842 46.842 0 0 0 1.756 1.738 57.587 57.587 0 0 0 6.553 5.314C17.272 29.145 24.59 32 32 32c7.385 0 14.688-3.028 21.561-8.108zM0 18S15 0 32 0s32 17 32 17-14 17-32 17S0 18 0 18z"/><path d="M40 17a8 8 0 1 0-16 0 8 8 0 0 0 16 0zm-18 0c0-5.523 4.477-10 10-10s10 4.477 10 10-4.477 10-10 10-10-4.477-10-10z"/><circle cx="32" cy="17" r="4"/></g></svg>
